Resources/Images/SVG/Info/Sensor.svg

<svg x="0" y="0" width="48" height="48" version="1.1" xmlns="http://www.w3.org/2000/svg" xmlns:xlink="http://www.w3.org/1999/xlink"><defs><linearGradient x1="11.68966" y1="11.68966" x2="57.52354" y2="57.52354" gradientUnits="userSpaceOnUse" id="color-1"><stop offset="0" stop-color="#000000" stop-opacity="0.7"></stop><stop offset="1" stop-color="#000000" stop-opacity="0"></stop></linearGradient><filter id="dropshadow"><feColorMatrix type="matrix" values="0 0 0 0 .05  0 0 0 0 .15  0 0 0 0 .1  0 0 0 .8 0"></feColorMatrix> <feOffset dx="0" dy="1"></feOffset> <feGaussianBlur stdDeviation="1"></feGaussianBlur> <feComposite in="SourceGraphic"></feComposite></filter></defs><g fill="none" stroke="none" stroke-width="none" stroke-linecap="butt" stroke-linejoin="miter" stroke-miterlimit="none" stroke-dasharray="" stroke-dashoffset="0" font-family="none" font-weight="normal" font-size="none" text-anchor="start" mix-blend-mode="normal"><g fill="#000000" stroke="none" stroke-width="1" stroke-miterlimit="4" font-family="&quot;Open Sans&quot;, sans-serif" font-size="14"></g><g fill="#000000" stroke="none" stroke-width="1" stroke-miterlimit="4" font-family="&quot;Open Sans&quot;, sans-serif" font-size="14"></g><g fill="#000000" stroke="none" stroke-width="1" stroke-miterlimit="4" font-family="&quot;Open Sans&quot;, sans-serif" font-size="14"></g><g fill="#000000" stroke="none" stroke-width="1" stroke-miterlimit="4" font-family="&quot;Open Sans&quot;, sans-serif" font-size="14"></g><g id="Capa_1" fill="#000000" stroke="none" stroke-width="1" stroke-miterlimit="4" font-family="&quot;Open Sans&quot;, sans-serif" font-size="14"><g></g><g></g><g></g><g></g><g></g><g></g><g></g><g></g><g></g><g></g><g></g><g></g><g></g><g></g><g></g><g></g></g><g fill="#000000" stroke="none" stroke-width="1" stroke-miterlimit="4" font-family="&quot;Open Sans&quot;, sans-serif" font-size="14"></g><path d="M3,24c0,-11.59798 9.40202,-21 21,-21c11.59798,0 21,9.40202 21,21c0,11.59798 -9.40202,21 -21,21c-11.59798,0 -21,-9.40202 -21,-21z" fill="#0091ea" stroke-width="1" stroke-miterlimit="10" font-family="sans-serif" font-size="12" filter="url(#dropshadow)"></path><path d="M27.33561,44.73655l-12.03608,-12.03608c-2.22915,-2.22915 -3.60987,-5.30673 -3.60987,-8.70047c0,-6.78747 5.52287,-12.31034 12.31034,-12.31034c3.39374,0 6.47132,1.38072 8.70047,3.60987l12.03608,12.03608c-1.42467,8.92643 -8.47451,15.97627 -17.40094,17.40094z" fill="url(#color-1)" stroke-width="1" stroke-miterlimit="10" font-family="sans-serif" font-size="12"></path><path d="M36.31034,24c0,6.78747 -5.52287,12.31034 -12.31034,12.31034c-6.78747,0 -12.31034,-5.52287 -12.31034,-12.31034c0,-6.78747 5.52287,-12.31034 12.31034,-12.31034c6.78747,0 12.31034,5.52287 12.31034,12.31034z M34.07209,24c0,-5.55084 -4.51566,-10.07209 -10.07209,-10.07209c-5.55644,0 -10.07209,4.52125 -10.07209,10.07209c0,5.55084 4.51566,10.07209 10.07209,10.07209c5.55644,0 10.07209,-4.52125 10.07209,-10.07209z M25.67868,19.52351l-3.35736,0c-0.92887,0 -1.67868,-0.74981 -1.67868,-1.67868c0,-0.92887 0.74981,-1.67868 1.67868,-1.67868l3.35736,0c0.92887,0 1.67868,0.74981 1.67868,1.67868c0,0.92887 -0.74981,1.67868 -1.67868,1.67868z M17.84483,25.11912c-0.92887,0 -1.67868,-0.74981 -1.67868,-1.67868c0,-0.92887 0.74981,-1.67868 1.67868,-1.67868c0.92887,0 1.67868,0.74981 1.67868,1.67868c0,0.92887 -0.74981,1.67868 -1.67868,1.67868z M21.76176,29.03605c0,0.92887 -0.74981,1.67868 -1.67868,1.67868c-0.92887,0 -1.67868,-0.74981 -1.67868,-1.67868c0,-0.92887 0.74981,-1.67868 1.67868,-1.67868c0.92887,0 1.67868,0.74981 1.67868,1.67868z M31.83385,23.44044c0,0.92887 -0.74981,1.67868 -1.67868,1.67868c-0.92887,0 -1.67868,-0.74981 -1.67868,-1.67868c0,-0.92887 0.74981,-1.67868 1.67868,-1.67868c0.92887,0 1.67868,0.74981 1.67868,1.67868z M29.59561,29.03605c0,0.92887 -0.74981,1.67868 -1.67868,1.67868c-0.92887,0 -1.67868,-0.74981 -1.67868,-1.67868c0,-0.92887 0.74981,-1.67868 1.67868,-1.67868c0.92887,0 1.67868,0.74981 1.67868,1.67868z" fill="#ffffff" stroke="none" stroke-width="0" stroke-miterlimit="4" font-family="&quot;Open Sans&quot;, sans-serif" font-size="14"></path></g></svg>

<?xml version="1.0" encoding="UTF-8" standalone="no"?>
<svg
   xmlns:dc="http://purl.org/dc/elements/1.1/"
   xmlns:cc="http://creativecommons.org/ns#"
   xmlns:rdf="http://www.w3.org/1999/02/22-rdf-syntax-ns#"
   xmlns:svg="http://www.w3.org/2000/svg"
   xmlns="http://www.w3.org/2000/svg"
   xmlns:sodipodi="http://sodipodi.sourceforge.net/DTD/sodipodi-0.dtd"
   xmlns:inkscape="http://www.inkscape.org/namespaces/inkscape"
   x="0"
   y="0"
   width="48"
   height="48"
   version="1.1"
   id="svg2"
   inkscape:version="0.91 r13725"
   sodipodi:docname="Sensor.svg">
  <metadata
     id="metadata73">
    <rdf:RDF>
      <cc:Work
         rdf:about="">
        <dc:format>image/svg+xml</dc:format>
        <dc:type
           rdf:resource="http://purl.org/dc/dcmitype/StillImage" />
      </cc:Work>
    </rdf:RDF>
  </metadata>
  <sodipodi:namedview
     pagecolor="#ffffff"
     bordercolor="#666666"
     borderopacity="1"
     objecttolerance="10"
     gridtolerance="10"
     guidetolerance="10"
     inkscape:pageopacity="0"
     inkscape:pageshadow="2"
     inkscape:window-width="640"
     inkscape:window-height="480"
     id="namedview71"
     showgrid="false"
     inkscape:zoom="4.9166667"
     inkscape:cx="24"
     inkscape:cy="24"
     inkscape:window-x="0"
     inkscape:window-y="0"
     inkscape:window-maximized="0"
     inkscape:current-layer="svg2" />
  <defs
     id="defs4">
    <linearGradient
       x1="11.68966"
       y1="11.68966"
       x2="57.52354"
       y2="57.52354"
       gradientUnits="userSpaceOnUse"
       id="color-1">
      <stop
         offset="0"
         stop-color="#000000"
         stop-opacity="0.7"
         id="stop7" />
      <stop
         offset="1"
         stop-color="#000000"
         stop-opacity="0"
         id="stop9" />
    </linearGradient>
    <filter
       id="dropshadow">
      <feColorMatrix
         type="matrix"
         values="0 0 0 0 .05  0 0 0 0 .15  0 0 0 0 .1  0 0 0 .8 0"
         id="feColorMatrix12" />
      <feOffset
         dx="0"
         dy="1"
         id="feOffset14" />
      <feGaussianBlur
         stdDeviation="1"
         id="feGaussianBlur16"
         result="result1" />
      <feComposite
         in="SourceGraphic"
         id="feComposite18"
         in2="result1" />
    </filter>
  </defs>
  <g
     id="g3426">
    <g
       stroke-miterlimit="4"
       font-size="14"
       id="g22"
       style="font-size:14px;font-family:'Open Sans', sans-serif;fill:#000000" />
    <g
       stroke-miterlimit="4"
       font-size="14"
       id="g24"
       style="font-size:14px;font-family:'Open Sans', sans-serif;fill:#000000" />
    <g
       stroke-miterlimit="4"
       font-size="14"
       id="g26"
       style="font-size:14px;font-family:'Open Sans', sans-serif;fill:#000000" />
    <g
       stroke-miterlimit="4"
       font-size="14"
       id="g28"
       style="font-size:14px;font-family:'Open Sans', sans-serif;fill:#000000" />
    <g
       id="Capa_1"
       stroke-miterlimit="4"
       font-size="14"
       style="font-size:14px;font-family:'Open Sans', sans-serif;fill:#000000">
      <g
         id="g31" />
      <g
         id="g33" />
      <g
         id="g35" />
      <g
         id="g37" />
      <g
         id="g39" />
      <g
         id="g41" />
      <g
         id="g43" />
      <g
         id="g45" />
      <g
         id="g47" />
      <g
         id="g49" />
      <g
         id="g51" />
      <g
         id="g53" />
      <g
         id="g55" />
      <g
         id="g57" />
      <g
         id="g59" />
      <g
         id="g61" />
    </g>
    <g
       stroke-miterlimit="4"
       font-size="14"
       id="g63"
       style="font-size:14px;font-family:'Open Sans', sans-serif;fill:#000000" />
    <path
       d="M 3,24 C 3,12.40202 12.40202,3 24,3 35.59798,3 45,12.40202 45,24 45,35.59798 35.59798,45 24,45 12.40202,45 3,35.59798 3,24 Z"
       stroke-miterlimit="10"
       id="path65"
       inkscape:connector-curvature="0"
       style="fill:#0091ea;stroke-miterlimit:10;filter:url(#dropshadow)" />
    <path
       d="M 27.33561,44.73655 15.29953,32.70047 C 13.07038,30.47132 11.68966,27.39374 11.68966,24 c 0,-6.78747 5.52287,-12.31034 12.31034,-12.31034 3.39374,0 6.47132,1.38072 8.70047,3.60987 l 12.03608,12.03608 c -1.42467,8.92643 -8.47451,15.97627 -17.40094,17.40094 z"
       stroke-miterlimit="10"
       id="path67"
       style="fill:url(#color-1);stroke-miterlimit:10"
       inkscape:connector-curvature="0" />
    <path
       d="m 36.31034,24 c 0,6.78747 -5.52287,12.31034 -12.31034,12.31034 -6.78747,0 -12.31034,-5.52287 -12.31034,-12.31034 0,-6.78747 5.52287,-12.31034 12.31034,-12.31034 6.78747,0 12.31034,5.52287 12.31034,12.31034 z m -2.23825,0 c 0,-5.55084 -4.51566,-10.07209 -10.07209,-10.07209 -5.55644,0 -10.07209,4.52125 -10.07209,10.07209 0,5.55084 4.51566,10.07209 10.07209,10.07209 5.55644,0 10.07209,-4.52125 10.07209,-10.07209 z m -8.39341,-4.47649 -3.35736,0 c -0.92887,0 -1.67868,-0.74981 -1.67868,-1.67868 0,-0.92887 0.74981,-1.67868 1.67868,-1.67868 l 3.35736,0 c 0.92887,0 1.67868,0.74981 1.67868,1.67868 0,0.92887 -0.74981,1.67868 -1.67868,1.67868 z m -7.83385,5.59561 c -0.92887,0 -1.67868,-0.74981 -1.67868,-1.67868 0,-0.92887 0.74981,-1.67868 1.67868,-1.67868 0.92887,0 1.67868,0.74981 1.67868,1.67868 0,0.92887 -0.74981,1.67868 -1.67868,1.67868 z m 3.91693,3.91693 c 0,0.92887 -0.74981,1.67868 -1.67868,1.67868 -0.92887,0 -1.67868,-0.74981 -1.67868,-1.67868 0,-0.92887 0.74981,-1.67868 1.67868,-1.67868 0.92887,0 1.67868,0.74981 1.67868,1.67868 z m 10.07209,-5.59561 c 0,0.92887 -0.74981,1.67868 -1.67868,1.67868 -0.92887,0 -1.67868,-0.74981 -1.67868,-1.67868 0,-0.92887 0.74981,-1.67868 1.67868,-1.67868 0.92887,0 1.67868,0.74981 1.67868,1.67868 z m -2.23824,5.59561 c 0,0.92887 -0.74981,1.67868 -1.67868,1.67868 -0.92887,0 -1.67868,-0.74981 -1.67868,-1.67868 0,-0.92887 0.74981,-1.67868 1.67868,-1.67868 0.92887,0 1.67868,0.74981 1.67868,1.67868 z"
       stroke-miterlimit="4"
       id="path69"
       inkscape:connector-curvature="0"
       style="fill:#ffffff;stroke-width:0" />
  </g>
</svg>
